public/svg/figma.svg

<svg xmlns="http://www.w3.org/2000/svg" width="56" height="56" viewBox="0 0 56 56" fill="none">
<rect width="56" height="56" fill="#C4C4C4" fill-opacity="0.01"/>
<g clip-path="url(#clip0)">
<path d="M22 47.0003C25.312 47.0003 28 44.2377 28 40.8337V34.667H22C18.688 34.667 16 37.4297 16 40.8337C16 44.2377 18.688 47.0003 22 47.0003Z" fill="#0ACF83"/>
<path d="M16 28.5002C16 25.0962 18.688 22.3335 22 22.3335H28V34.6668H22C18.688 34.6668 16 31.9042 16 28.5002Z" fill="#A259FF"/>
<path d="M16 16.1667C16 12.7627 18.688 10 22 10H28V22.3333H22C18.688 22.3333 16 19.5707 16 16.1667Z" fill="#F24E1E"/>
<path d="M28 10H34C37.312 10 40 12.7627 40 16.1667C40 19.5707 37.312 22.3333 34 22.3333H28V10Z" fill="#FF7262"/>
<path d="M40 28.5002C40 31.9042 37.312 34.6668 34 34.6668C30.688 34.6668 28 31.9042 28 28.5002C28 25.0962 30.688 22.3335 34 22.3335C37.312 22.3335 40 25.0962 40 28.5002Z" fill="#1ABCFE"/>
</g>
<defs>
<clipPath id="clip0">
<rect width="24" height="37" fill="white" transform="translate(16 10)"/>
</clipPath>
</defs>
</svg>

<svg xmlns="http://www.w3.org/2000/svg" width="56" height="56" fill="none" xmlns:v="https://vecta.io/nano"><path fill="#c4c4c4" fill-opacity=".01" d="M0 0h56v56H0z"/><g clip-path="url(#A)"><path d="M22 47c3.312 0 6-2.763 6-6.167v-6.167h-6c-3.312 0-6 2.763-6 6.167S18.688 47 22 47z" fill="#0acf83"/><path d="M16 28.5c0-3.404 2.688-6.167 6-6.167h6v12.333h-6c-3.312 0-6-2.763-6-6.167z" fill="#a259ff"/><path d="M16 16.167C16 12.763 18.688 10 22 10h6v12.333h-6c-3.312 0-6-2.763-6-6.167z" fill="#f24e1e"/><path d="M28 10h6c3.312 0 6 2.763 6 6.167s-2.688 6.167-6 6.167h-6V10z" fill="#ff7262"/><path d="M40 28.5c0 3.404-2.688 6.167-6 6.167s-6-2.763-6-6.167 2.688-6.167 6-6.167 6 2.763 6 6.167z" fill="#1abcfe"/></g><defs><clipPath id="A"><path fill="#fff" transform="translate(16 10)" d="M0 0h24v37H0z"/></clipPath></defs></svg>
